X:1
T:Title
T:Candyman Music Box Theme
T:Philip Glass
C:Philip Glass
%%score 1 2
L:1/8
Q:1/4=90
M:4/4
K:C
V:1 tab stafflines=4 strings=G4,C4,E4,A4 nm="Ukulele" snm="Uk."
V:2 tab stafflines=4 strings=G4,C4,E4,A4 nm="Ukulele" snm="Uk."
V:1
 !2!F!1!c!2!^G!1!c !2!F!1!c!2!G!1!_B | !3!C!1!c!2!G!1!c !3!D!1!c!2!E!1!c | %2
 !2!F!1!c!2!^G!1!c !2!F!1!c!2!G!1!_B | !3!^C!1!_B!2!F!1!B !3!_E!1!B!2!=E!1!B | %4
 !2!F!1!c!2!^G!1!c !2!F!1!c!2!G!1!_B | !3!C!1!c!2!G!1!c !3!D!1!c!2!E!1!c | %6
 !2!F!1!c!2!^G!1!c !2!F!1!c!2!G!1!_B | !3!_D!2!^G!3!F!2!G !3!^C!2!G!4!=G!1!_B | %8
 !3!_E!1!c!2!^G!1!c !3!E!1!c!2!G!1!c | !2!E!1!c!4!_B!1!c !4!B!1!c!2!E!1!c | %10
 !3!_D!2!^G!3!F!2!G !3!^C!2!G!4!=G!1!_B | !3!_E!1!c!2!^G!1!c !3!E!1!c!2!G!1!c | %12
 !2!E!1!c!4!_B!1!c !4!B!1!c!2!E!1!c | !2!F!1!c!2!^G!1!c !2!F!1!c!2!G!1!_B | %14
 !3!C!1!c!2!G!1!c !3!D!1!c!2!E!1!c | !2!F!1!c!2!^G!1!c !2!F!1!c!2!G!1!_B | %16
 !3!^C!1!_B!2!F!1!B !3!_E!1!B!2!=E!1!B | !2!F!1!c!2!^G!1!c !2!F!1!c!2!G!1!_B | %18
 !3!C!1!c!2!G!1!c !3!D!1!c!2!E!1!c | !2!F!1!c!2!^G!1!c !2!F!1!c!2!G!1!_B | %20
 !3!^C!2!_A!3!F!2!A !1!_B!2!G!3!_E!2!G | !3!^G!1!^g!2!^d!1!g !1!g4 |] %22
V:2
 !3!F/!3!G/!3!^G/!3!=G/ !3!F x4 !3!F | !3!E8 | !3!F/!3!G/!3!^G/!3!=G/ !3!F x4 !3!F | !2!^c8 | %4
 !3!F/!3!G/!3!^G/!3!=G/ !3!F x4 !3!F | !3!E8 | !3!F/!3!G/!3!^G/!3!=G/ !3!F x4 !3!F | %7
 !1!f6 !1!_e!1!^c | !1!c6 !2!_B!2!^G | !2!_A6 !2!G2 | !1!f6 !1!_e!1!^c | !1!c6 !2!_B!2!^G | %12
 !2!_A6 !3!G2 | !3!F/!3!G/!3!^G/!3!=G/ !3!F x4 !3!F | !3!E8 | !3!F/!3!G/!3!^G/!3!=G/ !3!F x4 !3!F | %16
 !2!^c8 | !3!F/!3!G/!3!^G/!3!=G/ !3!F x4 !3!F | !3!E8 | !3!F/!3!G/!3!^G/!3!=G/ !3!F x4 !3!F | %20
 !1!f6 !1!_e!1!^c | !1!c8 |] %22

